icons/op-baseline-add-24.svg

<svg width="24" height="24" viewBox="0 0 24 24" fill="none" xmlns="http://www.w3.org/2000/svg">
<path d="M18.5492 8.4C18.5492 7.84772 18.1015 7.4 17.5492 7.4H6.45078C5.89849 7.4 5.45078 7.84772 5.45078 8.4V11.44C5.45078 11.9923 5.89849 12.44 6.45078 12.44H10.2798C10.1541 12.8972 10.0915 13.3679 10.0933 13.84H5C4.44772 13.84 4 13.3923 4 12.84V7C4 6.44772 4.44772 6 5 6H19C19.5523 6 20 6.44772 20 7V10.4329C19.8784 10.2881 19.7485 10.1488 19.6106 10.0158C19.289 9.70545 18.9322 9.43695 18.5492 9.2139V8.4Z" fill="black"/>
<path fill-rule="evenodd" clip-rule="evenodd" d="M13.2619 10.3445C13.9742 9.88517 14.8117 9.64001 15.6684 9.64001C16.8172 9.64001 17.919 10.0804 18.7313 10.8643C19.5436 11.6482 20 12.7114 20 13.82C20 14.6467 19.746 15.4549 19.27 16.1423C18.794 16.8297 18.1175 17.3655 17.326 17.6818C16.5345 17.9982 15.6636 18.081 14.8233 17.9197C13.9831 17.7584 13.2113 17.3603 12.6055 16.7757C11.9997 16.1911 11.5872 15.4463 11.42 14.6355C11.2529 13.8246 11.3387 12.9842 11.6665 12.2204C11.9944 11.4566 12.5496 10.8038 13.2619 10.3445ZM15.3863 13.5478H13.3805L13.3993 14.1103L15.3863 14.0922L15.3675 16.0097L15.9504 16.0278V14.0922H17.9562L17.9374 13.5297L15.9504 13.5478L15.9692 11.6303L15.3863 11.6122V13.5478Z" fill="black"/>
</svg>

<svg xmlns="http://www.w3.org/2000/svg" width="24" height="24" viewBox="0 0 24 24"><path d="M18.549 8.4a1 1 0 0 0-1-1H6.451a1 1 0 0 0-1 1v3.04a1 1 0 0 0 1 1h3.829a5.185 5.185 0 0 0-.187 1.4H5a1 1 0 0 1-1-1V7a1 1 0 0 1 1-1h14a1 1 0 0 1 1 1v3.433a5.538 5.538 0 0 0-1.451-1.219V8.4Z"/><path d="M13.262 10.344a4.446 4.446 0 0 1 2.406-.704c1.149 0 2.251.44 3.063 1.224A4.105 4.105 0 0 1 20 13.82c0 .827-.254 1.635-.73 2.322a4.3 4.3 0 0 1-1.944 1.54 4.484 4.484 0 0 1-2.503.238 4.388 4.388 0 0 1-2.217-1.144 4.138 4.138 0 0 1-1.186-2.141 4.045 4.045 0 0 1 .247-2.415 4.22 4.22 0 0 1 1.595-1.876Zm2.124 3.204H13.38l.019.562 1.987-.018-.018 1.918.582.018v-1.936h2.006l-.019-.562-1.987.018.019-1.918-.583-.018Z"/></svg>
